X:30
T:Calder Fair. MBe.30
S:Matthew Betham MS, Towcett Cumbria, 1815
O:England;Cumbria;Towcett
Z:VMP – Hugh Taylor, 2012
T:Cawdor Fair, aka. MBe.30
M:C|
L:1/8
Q:1/2=100
R:.Reel
K:D
dcBA Bc/d/ “sic”E2|AAAF A2 AB/c/|dcBA Bc/d/ F2|EEFA B2 B:|
|:c|d2 df dddf|eeed e2 ef|gfed dcBA|Bdce d2 d2:|

